svgs/collabora_office.svg

<svg viewBox="0 0 192 192" xml:space="preserve" style="fill-rule:evenodd;clip-rule:evenodd;stroke-linecap:round;stroke-linejoin:round;stroke-miterlimit:1.5" xmlns="http://www.w3.org/2000/svg"><path d="M314.489 259.484v33.136a4.298 4.298 0 0 0 4.296 4.296h68.87a4.298 4.298 0 0 0 4.295-4.296v-68.87a4.298 4.298 0 0 0-4.295-4.296h-33.136l-40.03 40.03Z" style="fill-rule:evenodd;clip-rule:evenodd;stroke-linecap:round;stroke-linejoin:round;stroke-miterlimit:1.5;fill:none;stroke:#000;stroke-width:8.59px" transform="scale(1.39678) rotate(-45 -23.686 521.276)"/><path d="M351.912 296.916h35.743a4.298 4.298 0 0 0 4.295-4.296v-36.124" style="fill-rule:evenodd;clip-rule:evenodd;stroke-linecap:round;stroke-linejoin:round;stroke-miterlimit:1.5;fill:none;stroke:#000;stroke-width:8.59px" transform="scale(1.39678) rotate(-45 -49.658 583.978)"/></svg>

<?xml version="1.0" encoding="UTF-8" standalone="no"?>
<svg
   width="100%"
   height="100%"
   viewBox="0 0 192 192"
   version="1.1"
   xml:space="preserve"
   style="fill-rule:evenodd;clip-rule:evenodd;stroke-linecap:round;stroke-linejoin:round;stroke-miterlimit:1.5;"
   id="svg16"
   sodipodi:docname="collabora_office.svg"
   inkscape:version="1.2.1 (9c6d41e410, 2022-07-14)"
   xmlns:inkscape="http://www.inkscape.org/namespaces/inkscape"
   xmlns:sodipodi="http://sodipodi.sourceforge.net/DTD/sodipodi-0.dtd"
   xmlns="http://www.w3.org/2000/svg"
   xmlns:svg="http://www.w3.org/2000/svg"><defs
   id="defs20" /><sodipodi:namedview
   id="namedview18"
   pagecolor="#ffffff"
   bordercolor="#000000"
   borderopacity="0.25"
   inkscape:showpageshadow="2"
   inkscape:pageopacity="0.0"
   inkscape:pagecheckerboard="0"
   inkscape:deskcolor="#d1d1d1"
   showgrid="false"
   inkscape:zoom="7.0861647"
   inkscape:cx="45.79346"
   inkscape:cy="90.316839"
   inkscape:window-width="1274"
   inkscape:window-height="1303"
   inkscape:window-x="1282"
   inkscape:window-y="36"
   inkscape:window-maximized="0"
   inkscape:current-layer="svg16" />
    <path
   d="M314.489,259.484L314.489,292.62C314.489,294.991 316.414,296.916 318.785,296.916L387.655,296.916C390.025,296.916 391.95,294.991 391.95,292.62L391.95,223.75C391.95,221.379 390.025,219.454 387.655,219.454L354.519,219.454L314.489,259.484Z"
   style="fill-rule:evenodd;clip-rule:evenodd;stroke-linecap:round;stroke-linejoin:round;stroke-miterlimit:1.5;fill:none;stroke:black;stroke-width:8.59px"
   id="path4"
   transform="matrix(0.98767046,-0.98767046,0.98767046,0.98767046,-524.53895,189.86301)" /><path
   d="M351.912,296.916L387.655,296.916C390.025,296.916 391.95,294.991 391.95,292.62L391.95,256.496"
   style="fill-rule:evenodd;clip-rule:evenodd;stroke-linecap:round;stroke-linejoin:round;stroke-miterlimit:1.5;fill:none;stroke:black;stroke-width:8.59px"
   id="path8"
   transform="matrix(0.98767046,-0.98767046,0.98767046,0.98767046,-597.09354,189.86301)" />
</svg>
